img/brands/7.svg

<svg width="230" height="33" viewBox="0 0 230 33" fill="none" xmlns="http://www.w3.org/2000/svg">
<g clip-path="url(#clip0_106_491)">
<path d="M46.299 0C41.4 0 37.605 1.39598 34.914 4.21082C32.2 7.02566 30.866 11.1221 30.866 16.5C30.866 21.8551 32.223 25.9286 34.914 28.7434C37.628 31.5583 41.4 32.9542 46.299 32.9542C51.175 32.9542 54.993 31.5583 57.684 28.7434C60.375 25.9286 61.732 21.8551 61.732 16.5C61.732 11.1221 60.375 7.02566 57.684 4.21082C54.97 1.41886 51.175 0 46.299 0ZM52.348 26.0888C52.348 29.2698 49.864 31.8786 46.713 32.0846C46.575 32.1075 46.437 32.1075 46.276 32.1075C46.138 32.1075 46 32.1075 45.839 32.0846C42.688 31.8558 40.204 29.2698 40.204 26.0888V6.88835C40.204 3.70735 42.688 1.09847 45.839 0.89251C45.977 0.869626 46.115 0.869626 46.276 0.869626C46.414 0.869626 46.575 0.869626 46.713 0.89251C49.864 1.12136 52.348 3.70735 52.348 6.88835V26.0888ZM81.19 31.4438C80.914 31.8786 80.477 32.0846 79.856 32.0846H75.555C75.21 32.0846 75.003 32.0388 74.911 31.9244C74.819 31.81 74.773 31.5583 74.773 31.1692V4.50832C74.773 4.05062 74.934 3.22677 75.233 2.95215L78.269 0.0686546V0H62.997V0.0915395L66.056 2.97503C66.332 3.24965 66.47 4.07351 66.47 4.53121V28.9494C66.47 29.4071 66.332 29.7732 66.056 30.0478L62.974 32.9313V33.0229H87.63V21.1227H87.538L81.19 31.4438ZM0 16.5C0 22.4272 3.151 27.6221 7.866 30.5284C7.889 30.5284 7.889 30.5513 7.889 30.5513C7.935 30.5742 7.958 30.5971 8.004 30.62C9.016 31.2607 10.12 31.7871 11.385 32.1533C13.018 32.6796 14.766 32.9771 16.583 32.9771H17.572H17.595H17.618H18.308C18.308 32.9771 18.308 32.9771 18.331 32.9771H27.393V20.7108H27.301L20.286 31.4667C19.987 31.9015 19.481 32.1075 18.768 32.1075H18.262C13.547 32.1075 9.936 26.9126 9.936 16.5458C9.936 6.08738 13.524 0.846741 18.17 0.846741H18.814C19.527 0.846741 20.01 1.09847 20.332 1.57906L27.301 12.0832H27.393V0H16.583C7.429 0 0 7.39182 0 16.5ZM128.846 17.4841C128.363 16.8662 127.696 16.2483 126.822 15.6304C125.948 15.0125 125.166 14.509 124.453 14.12C123.74 13.7309 122.797 13.2503 121.601 12.6782L119.899 11.8544C117.829 10.8474 116.334 9.93204 115.437 9.10818C114.54 8.28433 114.08 7.20874 114.08 5.88141C114.08 4.30236 114.586 3.06657 115.575 2.19695C116.564 1.30444 117.898 0.869626 119.531 0.869626C120.083 0.869626 120.52 0.89251 120.865 0.961165C121.233 1.02982 121.532 1.23578 121.785 1.60194L127.972 11.4653H128.064V0H118.933H118.956C115.483 0.0457698 112.7 0.915395 110.584 2.58599C108.422 4.32524 107.318 6.63662 107.318 9.52011C107.318 10.8932 107.548 12.129 108.031 13.2275C108.514 14.3259 109.181 15.2871 110.101 16.111C111.021 16.9348 111.872 17.5985 112.746 18.1248C113.597 18.6512 114.632 19.2233 115.874 19.7954L117.3 20.482C119.623 21.5804 121.256 22.5645 122.199 23.4341C123.142 24.3037 123.625 25.448 123.625 26.8669C123.625 28.5374 123.05 29.8419 121.923 30.7573C120.796 31.6727 119.278 32.1304 117.392 32.1304C116.564 32.1304 115.92 32.1075 115.46 32.0388C115.069 31.9702 114.724 31.6956 114.448 31.215L108.399 20.8024H108.33V32.9771H117.737C121.601 32.9771 124.683 32.0159 127.052 30.0936C129.398 28.1713 130.571 25.6768 130.571 22.5645C130.571 21.5347 130.41 20.5735 130.065 19.681C129.743 18.8343 129.329 18.0791 128.846 17.4841ZM190.969 0H179.814V0.0915395L184.299 6.15603C184.69 6.61373 184.897 7.1172 184.897 7.66644V24.3953C184.897 28.2399 181.769 31.3523 177.905 31.3523C176.87 31.3523 175.904 31.1234 175.03 30.7344C174.869 30.6657 174.731 30.5971 174.57 30.5284C174.386 30.414 174.179 30.3225 173.995 30.1852C173.972 30.1852 173.972 30.1623 173.949 30.1623C173.834 30.0707 173.719 30.0021 173.604 29.9105C171.971 28.629 170.913 26.6609 170.913 24.4182V4.11928C170.913 3.66158 171.074 3.29542 171.373 3.0208L174.225 0.0915395V0H159.413V0.0915395L162.173 3.0208C162.472 3.29542 162.633 3.66158 162.633 4.11928V21.6491C162.633 25.7226 163.622 28.629 165.6 30.3911C167.578 32.1304 170.752 33.0229 175.122 33.0229C178.94 33.0229 181.7 31.9931 183.379 29.9105C185.058 27.828 185.909 24.8301 185.909 20.871V7.66644C185.909 7.1172 186.116 6.61373 186.507 6.15603L190.992 0.0915395L190.969 0ZM89.631 0.0915395L92.69 2.97503C92.966 3.24965 93.104 4.07351 93.104 4.53121V28.9494C93.104 29.4071 92.966 29.7732 92.69 30.0478L89.608 32.9313V33.0229H104.88V32.9313L101.844 30.0478C101.545 29.7732 101.384 29.4071 101.384 28.9494V4.50832C101.384 4.05062 101.545 3.22677 101.844 2.95215L104.88 0.0686546V0H89.608V0.0915395H89.631ZM226.964 3.43273L230 0.0915395V0H220.133L211.692 20.8024L202.124 0H191.153V0.0915395L194.902 5.01179C195.178 5.35506 195.316 5.78988 195.316 6.33911V25.3107C195.316 25.7684 195.109 26.2718 194.718 26.8211L190.095 32.8856V32.9771H201.526V32.8856L196.88 26.8211C196.489 26.2718 196.282 25.7684 196.282 25.3107V6.97989C196.397 7.36893 196.696 8.05548 197.156 8.99376L207.897 33H207.989L218.362 6.93412C218.27 7.84951 218.224 8.76491 218.224 9.6803V28.9265C218.224 29.3842 218.086 29.7503 217.81 30.025L214.728 32.9085V33H230V32.9085L226.964 30.025C226.665 29.7503 226.504 29.3842 226.504 28.9265V4.55409C226.504 4.11928 226.665 3.73024 226.964 3.43273ZM151.156 31.4438C150.903 31.8786 150.443 32.0846 149.776 32.0846H144.509C144.164 32.0846 143.957 32.0388 143.865 31.9244C143.773 31.81 143.727 31.5583 143.727 31.1692V16.9348H146.809C147.269 16.9348 147.683 17.1408 148.051 17.5298L152.168 22.267H152.26V10.6415H152.168L148.051 15.3786C147.706 15.7677 147.315 15.9965 146.855 16.0194H143.75V1.83079C143.75 1.44175 143.796 1.19001 143.888 1.07559C143.98 0.961165 144.187 0.915395 144.532 0.915395H149.247C149.799 0.915395 150.213 1.16713 150.535 1.64771L156.446 11.0534H156.538V0H131.951V0.0915395L135.033 2.97503C135.309 3.24965 135.447 3.61581 135.447 4.07351V28.9494C135.447 29.4071 135.309 29.7732 135.033 30.0478L131.951 32.9313V33.0229H156.952V21.8093H156.86L151.156 31.4438Z" fill="black"/>
</g>
<defs>
<clipPath id="clip0_106_491">
<rect width="230" height="33" fill="white"/>
</clipPath>
</defs>
</svg>

<svg width="230" height="33" fill="none" xmlns="http://www.w3.org/2000/svg"><g clip-path="url(#a)"><path d="M46.299 0C41.4 0 37.605 1.396 34.914 4.21c-2.714 2.816-4.048 6.912-4.048 12.29 0 5.355 1.357 9.429 4.048 12.243 2.714 2.815 6.486 4.211 11.385 4.211 4.876 0 8.694-1.396 11.385-4.21 2.691-2.815 4.048-6.889 4.048-12.244 0-5.378-1.357-9.474-4.048-12.29C54.97 1.42 51.175 0 46.299 0Zm6.049 26.089c0 3.18-2.484 5.79-5.635 5.996a2.652 2.652 0 0 1-.437.023c-.138 0-.276 0-.437-.023-3.151-.23-5.635-2.815-5.635-5.996v-19.2c0-3.182 2.484-5.79 5.635-5.996.138-.023.276-.023.437-.023.138 0 .299 0 .437.023 3.151.228 5.635 2.814 5.635 5.995v19.2Zm28.842 5.355c-.276.435-.713.64-1.334.64h-4.301c-.345 0-.552-.045-.644-.16-.092-.114-.138-.366-.138-.755V4.51c0-.458.161-1.282.46-1.557L78.269.07V0H62.997v.092l3.059 2.883c.276.275.414 1.099.414 1.556V28.95c0 .458-.138.824-.414 1.099l-3.082 2.883v.092H87.63v-11.9h-.092l-6.348 10.32ZM0 16.5c0 5.927 3.151 11.122 7.866 14.028.023 0 .023.023.023.023.046.023.069.046.115.069a13.019 13.019 0 0 0 3.381 1.533c1.633.527 3.381.824 5.198.824H27.393V20.711h-.092l-7.015 10.756c-.299.434-.805.64-1.518.64h-.506c-4.715 0-8.326-5.194-8.326-15.561 0-10.459 3.588-15.7 8.234-15.7h.644c.713 0 1.196.252 1.518.733l6.969 10.504h.092V0h-10.81C7.429 0 0 7.392 0 16.5Zm128.846.984c-.483-.618-1.15-1.236-2.024-1.854-.874-.618-1.656-1.121-2.369-1.51-.713-.39-1.656-.87-2.852-1.442l-1.702-.824c-2.07-1.007-3.565-1.922-4.462-2.746-.897-.824-1.357-1.9-1.357-3.227 0-1.579.506-2.814 1.495-3.684.989-.893 2.323-1.327 3.956-1.327.552 0 .989.023 1.334.091.368.069.667.275.92.64l6.187 9.864h.092V0h-9.131.023c-3.473.046-6.256.915-8.372 2.586-2.162 1.74-3.266 4.05-3.266 6.934 0 1.373.23 2.609.713 3.707a8.25 8.25 0 0 0 2.07 2.884c.92.824 1.771 1.488 2.645 2.014a28.984 28.984 0 0 0 3.128 1.67l1.426.687c2.323 1.098 3.956 2.082 4.899 2.952.943.87 1.426 2.014 1.426 3.433 0 1.67-.575 2.975-1.702 3.89-1.127.916-2.645 1.373-4.531 1.373-.828 0-1.472-.023-1.932-.091-.391-.069-.736-.343-1.012-.824l-6.049-10.413h-.069v12.175h9.407c3.864 0 6.946-.961 9.315-2.883 2.346-1.923 3.519-4.417 3.519-7.53 0-1.03-.161-1.99-.506-2.883-.322-.847-.736-1.602-1.219-2.197ZM190.969 0h-11.155v.092l4.485 6.064c.391.458.598.961.598 1.51v16.73c0 3.844-3.128 6.956-6.992 6.956a7.035 7.035 0 0 1-2.875-.618c-.161-.068-.299-.137-.46-.206-.184-.114-.391-.205-.575-.343-.023 0-.023-.023-.046-.023-.115-.091-.23-.16-.345-.252-1.633-1.281-2.691-3.25-2.691-5.492V4.12c0-.457.161-.824.46-1.098l2.852-2.93V0h-14.812v.092l2.76 2.929c.299.274.46.64.46 1.098v17.53c0 4.074.989 6.98 2.967 8.742 1.978 1.74 5.152 2.632 9.522 2.632 3.818 0 6.578-1.03 8.257-3.113 1.679-2.082 2.53-5.08 2.53-9.039V7.666c0-.549.207-1.052.598-1.51l4.485-6.064-.023-.092ZM89.631.092l3.059 2.883c.276.275.414 1.099.414 1.556V28.95c0 .458-.138.824-.414 1.099l-3.082 2.883v.092h15.272v-.092l-3.036-2.883c-.299-.275-.46-.64-.46-1.099V4.51c0-.458.161-1.282.46-1.557L104.88.07V0H89.608v.092h.023Zm137.333 3.34L230 .093V0h-9.867l-8.441 20.802L202.124 0h-10.971v.092l3.749 4.92c.276.343.414.778.414 1.327v18.972c0 .457-.207.96-.598 1.51l-4.623 6.065v.091h11.431v-.091l-4.646-6.065c-.391-.55-.598-1.053-.598-1.51V6.98c.115.389.414 1.075.874 2.014L207.897 33h.092l10.373-26.066c-.092.916-.138 1.83-.138 2.746v19.247c0 .457-.138.823-.414 1.098l-3.082 2.883V33H230v-.092l-3.036-2.883c-.299-.275-.46-.64-.46-1.098V4.553c0-.435.161-.824.46-1.121Zm-75.808 28.012c-.253.435-.713.64-1.38.64h-5.267c-.345 0-.552-.045-.644-.16-.092-.114-.138-.366-.138-.755V16.935h3.082c.46 0 .874.206 1.242.595l4.117 4.737h.092V10.642h-.092l-4.117 4.737c-.345.389-.736.617-1.196.64h-3.105V1.831c0-.39.046-.641.138-.755.092-.115.299-.16.644-.16h4.715c.552 0 .966.251 1.288.732l5.911 9.405h.092V0h-24.587v.092l3.082 2.883c.276.275.414.64.414 1.099v24.875c0 .458-.138.824-.414 1.099l-3.082 2.883v.092h25.001V21.809h-.092l-5.704 9.635Z" fill="#000"/></g><defs><clipPath id="a"><path fill="#fff" d="M0 0h230v33H0z"/></clipPath></defs></svg>
